X: 35
T: Grandmammy Look at Uncle Sam
M: 4/4
L: 1/8
Q: 140
S: John Hartford "Wild Hog in the Redbrush" transcribed by Llarry Brandon
K: Am
|: .vA,2 vA,B,CA, CD | vEDEF v(AB)u.c2 | v.A,2 vA,B,CA, CE | vGBAG EDCE |
| v.A,2 vA,B,CA, CD | vEDEF ABcd | vegab a2 u(ea) | v^fged v(cA) uA2 :|
|: veg a2 a2 v(ab) | u(ag)ved g2 B2 | vBdga bgag | vedcd v(eg a2) |
| ua4 vAceg | va2 u(ab)vag ed | vg2B2 Bdga | vbgag eu(dcd) | v(eg a2) a4 :|
|| "4"v[A2A2] u[Ac][AA] v[AB]AAA | vcABc ABAF | vGFGA BGAG | vEDCD v(EA) uA2 | vA4 B2z2 |]
%%sep 2 1 500
